Newaita-dark/actions/24/gnumeric-format-valign-justify.svg

<svg height="24" viewBox="0 0 24 24" width="24" xmlns="http://www.w3.org/2000/svg"><g fill="#e0e0e0"><path d="m2.234375 3.164062h19.347656c.136719 0 .25-.109374.25-.246093v-.484375c0-.136719-.113281-.25-.25-.25h-19.347656c-.140625 0-.25.113281-.25.25v.484375c0 .136719.109375.246093.25.246093zm0 0"/><path d="m2.234375 6.140625h19.347656c.136719 0 .25-.109375.25-.246094v-.484375c0-.136718-.113281-.25-.25-.25h-19.347656c-.140625 0-.25.113282-.25.25v.484375c0 .136719.109375.246094.25.246094zm0 0"/><path d="m2.234375 11.089844h19.347656c.136719 0 .25-.109375.25-.246094v-.484375c0-.136719-.113281-.25-.25-.25h-19.347656c-.140625 0-.25.113281-.25.25v.484375c0 .136719.109375.246094.25.246094zm0 0"/><path d="m2.234375 14.066406h19.347656c.136719 0 .25-.109375.25-.246094v-.484374c0-.136719-.113281-.25-.25-.25h-19.347656c-.140625 0-.25.113281-.25.25v.484374c0 .136719.109375.246094.25.246094zm0 0"/><path d="m2.234375 19.039062h19.347656c.136719 0 .25-.109374.25-.246093v-.484375c0-.136719-.113281-.246094-.25-.246094h-19.347656c-.140625 0-.25.109375-.25.246094v.484375c0 .136719.109375.246093.25.246093zm0 0"/><path d="m2.234375 22.019531h19.347656c.136719 0 .25-.113281.25-.25v-.484375c0-.136718-.113281-.246094-.25-.246094h-19.347656c-.140625 0-.25.109376-.25.246094v.484375c0 .136719.109375.25.25.25zm0 0"/></g></svg>

<?xml version="1.0" encoding="UTF-8"?>
<svg xmlns="http://www.w3.org/2000/svg" xmlns:xlink="http://www.w3.org/1999/xlink" width="24px" height="24px" viewBox="0 0 24 24" version="1.1">
<g id="surface1">
<path style=" stroke:none;fill-rule:nonzero;fill:rgb(87.843138%,87.843138%,87.843138%);fill-opacity:1;" d="M 2.234375 3.164062 L 21.582031 3.164062 C 21.71875 3.164062 21.832031 3.054688 21.832031 2.917969 L 21.832031 2.433594 C 21.832031 2.296875 21.71875 2.183594 21.582031 2.183594 L 2.234375 2.183594 C 2.09375 2.183594 1.984375 2.296875 1.984375 2.433594 L 1.984375 2.917969 C 1.984375 3.054688 2.09375 3.164062 2.234375 3.164062 Z M 2.234375 3.164062 "/>
<path style=" stroke:none;fill-rule:nonzero;fill:rgb(87.843138%,87.843138%,87.843138%);fill-opacity:1;" d="M 2.234375 6.140625 L 21.582031 6.140625 C 21.71875 6.140625 21.832031 6.03125 21.832031 5.894531 L 21.832031 5.410156 C 21.832031 5.273438 21.71875 5.160156 21.582031 5.160156 L 2.234375 5.160156 C 2.09375 5.160156 1.984375 5.273438 1.984375 5.410156 L 1.984375 5.894531 C 1.984375 6.03125 2.09375 6.140625 2.234375 6.140625 Z M 2.234375 6.140625 "/>
<path style=" stroke:none;fill-rule:nonzero;fill:rgb(87.843138%,87.843138%,87.843138%);fill-opacity:1;" d="M 2.234375 11.089844 L 21.582031 11.089844 C 21.71875 11.089844 21.832031 10.980469 21.832031 10.84375 L 21.832031 10.359375 C 21.832031 10.222656 21.71875 10.109375 21.582031 10.109375 L 2.234375 10.109375 C 2.09375 10.109375 1.984375 10.222656 1.984375 10.359375 L 1.984375 10.84375 C 1.984375 10.980469 2.09375 11.089844 2.234375 11.089844 Z M 2.234375 11.089844 "/>
<path style=" stroke:none;fill-rule:nonzero;fill:rgb(87.843138%,87.843138%,87.843138%);fill-opacity:1;" d="M 2.234375 14.066406 L 21.582031 14.066406 C 21.71875 14.066406 21.832031 13.957031 21.832031 13.820312 L 21.832031 13.335938 C 21.832031 13.199219 21.71875 13.085938 21.582031 13.085938 L 2.234375 13.085938 C 2.09375 13.085938 1.984375 13.199219 1.984375 13.335938 L 1.984375 13.820312 C 1.984375 13.957031 2.09375 14.066406 2.234375 14.066406 Z M 2.234375 14.066406 "/>
<path style=" stroke:none;fill-rule:nonzero;fill:rgb(87.843138%,87.843138%,87.843138%);fill-opacity:1;" d="M 2.234375 19.039062 L 21.582031 19.039062 C 21.71875 19.039062 21.832031 18.929688 21.832031 18.792969 L 21.832031 18.308594 C 21.832031 18.171875 21.71875 18.0625 21.582031 18.0625 L 2.234375 18.0625 C 2.09375 18.0625 1.984375 18.171875 1.984375 18.308594 L 1.984375 18.792969 C 1.984375 18.929688 2.09375 19.039062 2.234375 19.039062 Z M 2.234375 19.039062 "/>
<path style=" stroke:none;fill-rule:nonzero;fill:rgb(87.843138%,87.843138%,87.843138%);fill-opacity:1;" d="M 2.234375 22.019531 L 21.582031 22.019531 C 21.71875 22.019531 21.832031 21.90625 21.832031 21.769531 L 21.832031 21.285156 C 21.832031 21.148438 21.71875 21.039062 21.582031 21.039062 L 2.234375 21.039062 C 2.09375 21.039062 1.984375 21.148438 1.984375 21.285156 L 1.984375 21.769531 C 1.984375 21.90625 2.09375 22.019531 2.234375 22.019531 Z M 2.234375 22.019531 "/>
</g>
</svg>
